Numix-Light-GalliumOS/24/status/megasync-status-syncing.svg

<?xml version="1.0" encoding="UTF-8" standalone="no"?>
<svg
   xmlns:dc="http://purl.org/dc/elements/1.1/"
   xmlns:cc="http://creativecommons.org/ns#"
   xmlns:rdf="http://www.w3.org/1999/02/22-rdf-syntax-ns#"
   xmlns:svg="http://www.w3.org/2000/svg"
   xmlns="http://www.w3.org/2000/svg"
   xmlns:sodipodi="http://sodipodi.sourceforge.net/DTD/sodipodi-0.dtd"
   xmlns:inkscape="http://www.inkscape.org/namespaces/inkscape"
   width="24"
   viewBox="0 0 6.7733335 6.7733335"
   height="24"
   id="svg2"
   version="1.1"
   inkscape:version="0.91 r"
   sodipodi:docname="megasync-status-syncing.svg">
  <metadata
     id="metadata399">
    <rdf:RDF>
      <cc:Work
         rdf:about="">
        <dc:format>image/svg+xml</dc:format>
        <dc:type
           rdf:resource="http://purl.org/dc/dcmitype/StillImage" />
        <dc:title />
      </cc:Work>
    </rdf:RDF>
  </metadata>
  <sodipodi:namedview
     pagecolor="#ffffff"
     bordercolor="#666666"
     borderopacity="1"
     objecttolerance="10"
     gridtolerance="10"
     guidetolerance="10"
     inkscape:pageopacity="0"
     inkscape:pageshadow="2"
     inkscape:window-width="1920"
     inkscape:window-height="1056"
     id="namedview397"
     showgrid="true"
     inkscape:zoom="7.151421"
     inkscape:cx="-12.448254"
     inkscape:cy="-14.949913"
     inkscape:window-x="0"
     inkscape:window-y="24"
     inkscape:window-maximized="1"
     inkscape:current-layer="svg2"
     inkscape:object-paths="true"
     inkscape:snap-intersection-paths="true"
     inkscape:object-nodes="true"
     inkscape:snap-smooth-nodes="true"
     inkscape:snap-midpoints="true"
     inkscape:snap-object-midpoints="true"
     inkscape:snap-center="true">
    <inkscape:grid
       type="xygrid"
       id="grid3000" />
  </sodipodi:namedview>
  <defs
     id="defs4">
    <clipPath
       id="clipPath-408241621">
      <g
         transform="translate(0,-1004.3622)"
         id="g3616">
        <path
           style="fill:#1890d0"
           inkscape:connector-curvature="0"
           d="m -24,13 c 0,1.105 -0.672,2 -1.5,2 -0.828,0 -1.5,-0.895 -1.5,-2 0,-1.105 0.672,-2 1.5,-2 0.828,0 1.5,0.895 1.5,2 z"
           transform="matrix(15.333333,0,0,11.5,414.99999,878.8622)"
           id="path3618" />
      </g>
    </clipPath>
    <clipPath
       id="clipPath-408241621-1">
      <g
         transform="translate(0,-1004.3622)"
         id="g3616-0">
        <path
           style="fill:#1890d0"
           inkscape:connector-curvature="0"
           d="m -24,13 c 0,1.105 -0.672,2 -1.5,2 -0.828,0 -1.5,-0.895 -1.5,-2 0,-1.105 0.672,-2 1.5,-2 0.828,0 1.5,0.895 1.5,2 z"
           transform="matrix(15.333333,0,0,11.5,414.99999,878.8622)"
           id="path3618-5" />
      </g>
    </clipPath>
  </defs>
  <path
     style="opacity:1;fill:#353535;fill-opacity:1;fill-rule:nonzero;stroke:none;stroke-width:0.21166666;stroke-linecap:butt;stroke-linejoin:miter;stroke-miterlimit:4;stroke-dasharray:none;stroke-dashoffset:0;stroke-opacity:1"
     d="m 3.3866667,1.1288889 c -1.2469362,-1e-7 -2.2577779,1.0108416 -2.2577778,2.2577777 0,0.4532839 0.1349652,0.8744382 0.3649046,1.2281075 l 0.7474479,-1.4965494 0.016536,-0.034727 0,-0.023151 L 2.0224089,2.9247482 2.1629688,2.6805599 C 2.1914688,2.6311969 2.2240278,2.5849279 2.2577778,2.54 2.5332216,2.1733278 2.973574,1.9583378 3.438481,1.9755555 3.7995883,1.9889289 4.0753578,2.227808 4.3231814,2.4755078 l 0.9558073,-0.3175 C 4.8763251,1.5391236 4.1800487,1.1288889 3.3866667,1.1288889 Z m 1.8928732,1.0296701 -0.7639843,1.5318273 0,0.0226 0.2353688,0.1355991 -0.1405596,0.2441882 c -0.0285,0.049363 -0.06106,0.095632 -0.094809,0.1405594 C 4.2401118,4.6000054 3.7997596,4.8149953 3.3348524,4.7977777 2.9737462,4.7844032 2.6979757,4.5455247 2.450152,4.2978256 L 1.4948959,4.6158768 c 0.4027277,0.61853 1.0986595,1.0285676 1.8917708,1.0285676 1.2469362,0 2.2577778,-1.0108416 2.2577778,-2.2577778 0,-0.4532837 -0.1349652,-0.8744382 -0.3649046,-1.2281076 z"
     id="path4138"
     inkscape:connector-curvature="0" />
  <g
     id="g4161"
     transform="matrix(0.28222222,0,0,0.28222222,-4.6776128,0.52916681)">
    <path
       id="path22"
       d="m 28.720703,6.1249998 c 1.308665,0.048466 2.499789,0.7371834 3.203125,1.8183593 L 33.3125,7.4804685 31.740234,10.626953 28.595703,9.0527341 29.873047,8.6269529 C 29.534785,8.3329009 29.111948,8.1422398 28.646484,8.1249998 27.904043,8.0975038 27.21132,8.4796317 26.839844,9.1230467 l -1.732422,-1 c 0.740096,-1.2818842 2.134103,-2.0528279 3.613281,-1.9980469 z m -3.3125,3.4980471 3.144531,1.5742181 -1.277343,0.425782 c 0.338262,0.294052 0.7611,0.484713 1.226562,0.501953 0.742443,0.0275 1.435165,-0.354632 1.806641,-0.998047 l 1.732422,1 C 31.30092,13.408837 29.906913,14.179781 28.427734,14.125 27.11907,14.07653 25.927946,13.387816 25.22461,12.306641 l -1.388672,0.46289 z"
       style="opacity:1;fill:#353535;fill-opacity:1;fill-rule:nonzero;stroke:none"
       inkscape:connector-curvature="0"
       sodipodi:nodetypes="scccccsccscccsccsccc" />
    <g
       transform="matrix(1.25,0,0,-1.25,-129.20625,298.11625)"
       id="g48" />
    <g
       transform="matrix(0.42297932,0,0,0.42297932,-11.083711,3.1945516)"
       clip-path="url(#clipPath-408241621)"
       id="g3650">
      <!-- color: #004794 -->
      <g
         id="g3652" />
    </g>
  </g>
  <g
     id="g4161-5"
     transform="matrix(0.28222222,0,0,0.28222222,-4.9598351,0.81138907)"
     style="stroke:#000000;stroke-width:1;stroke-miterlimit:4;stroke-dasharray:none;stroke-opacity:1">
    <g
       transform="matrix(1.25,0,0,-1.25,-129.20625,298.11625)"
       id="g48-0"
       style="stroke:#000000;stroke-width:0.80000001;stroke-miterlimit:4;stroke-dasharray:none;stroke-opacity:1" />
    <g
       transform="matrix(0.42297932,0,0,0.42297932,-11.083711,3.1945516)"
       clip-path="url(#clipPath-408241621-1)"
       id="g3650-9"
       style="stroke:#000000;stroke-width:2.36418176;stroke-miterlimit:4;stroke-dasharray:none;stroke-opacity:1">
      <!-- color: #004794 -->
      <g
         id="g3652-0"
         style="stroke:#000000;stroke-width:2.36418176;stroke-miterlimit:4;stroke-dasharray:none;stroke-opacity:1" />
    </g>
  </g>
</svg>

<svg xmlns="http://www.w3.org/2000/svg" width="24" viewBox="0 0 6.7733335 6.7733335" height="24">
 <path d="m 3.387 1.129 c -1.247 0 -2.258 1.01 -2.258 2.258 0 0.453 0.135 0.874 0.365 1.228 l 0.747 -1.497 0.017 -0.035 0 -0.023 l -0.235 -0.136 0.141 -0.244 c 0.029 -0.049 0.061 -0.096 0.095 -0.141 0.275 -0.367 0.716 -0.582 1.181 -0.564 0.361 0.013 0.637 0.252 0.885 0.5 l 0.956 -0.317 c -0.403 -0.619 -1.099 -1.029 -1.892 -1.029 m 1.893 1.03 -0.764 1.532 0 0.023 0.235 0.136 -0.141 0.244 c -0.029 0.049 -0.061 0.096 -0.095 0.141 c -0.275 0.367 -0.716 0.582 -1.181 0.564 -0.361 -0.013 -0.637 -0.252 -0.885 -0.5 l -0.955 0.318 c 0.403 0.619 1.099 1.029 1.892 1.029 1.247 0 2.258 -1.01 2.258 -2.258 0 -0.453 -0.135 -0.874 -0.365 -1.228 z" style="fill:#353535;opacity:1;fill-opacity:1;stroke:none;fill-rule:nonzero"/>
 <g transform="matrix(0.28222222,0,0,0.28222222,-4.6776128,0.52916681)">
  <path d="m 28.721 6.125 c 1.309 0.048 2.5 0.737 3.203 1.818 l 1.389 -0.463 -1.572 3.146 -3.145 -1.574 1.277 -0.426 c -0.338 -0.294 -0.761 -0.485 -1.227 -0.502 -0.742 -0.027 -1.435 0.355 -1.807 0.998 l -1.732 -1 c 0.74 -1.282 2.134 -2.053 3.613 -1.998 z m -3.313 3.498 3.145 1.574 -1.277 0.426 c 0.338 0.294 0.761 0.485 1.227 0.502 0.742 0.027 1.435 -0.355 1.807 -0.998 l 1.732 1 c -0.74 1.282 -2.134 2.053 -3.613 1.998 -1.309 -0.048 -2.5 -0.737 -3.203 -1.818 l -1.389 0.463 z" style="fill:#353535;opacity:1;fill-opacity:1;stroke:none;fill-rule:nonzero"/>
  <g transform="matrix(0.42297932,0,0,0.42297932,-11.083711,3.1945516)">
   <!-- color: #004794 -->
  </g>
 </g>
 <g transform="matrix(0.28222222,0,0,0.28222222,-4.9598351,0.81138907)" style="stroke-dasharray:none;stroke-opacity:1;stroke-miterlimit:4;stroke:#000;stroke-width:1">
  <g transform="matrix(0.42297932,0,0,0.42297932,-11.083711,3.1945516)" style="stroke:#000;stroke-width:2.364">
   <!-- color: #004794 -->
  </g>
 </g>
</svg>
